X: 1
T: Brown Haired Maiden
R: March
M: 2/4
L: 1/8
K: Dmaj
|: A/B/ | d>c BA | d2 A>d | f>d gf | fe eg |
fa fa | A2 d>e | f2 ge | d2 d :|
g | fa fa | A2 d>e | fd gf | fe eg|
[1 fa fa | A2 d>e | f2 ge | d2 d:|
[2 ag fa | A2 d>e | f2 ge | d2 d ||